X:445
T: "Engellied zu Weihnachten"
N: Z1125
O: Europa, Mitteleuropa, Deutschland, Sued - Deutschland
R: religioeses Lied, Weihnachts - Lied
M: 2/4
L: 1/16
K: F
c4 | f4d2d2 | c3dc2
B2 | A4A2G2 | F4
G4 | A3Bc2B2 | ABc4
B2 | A3Bc2B2 | ABc4
c2 | f4d3c | c3dc2
B2 | A4A2G2 | F4

